icons/4_Outdated/Fathom Analytics v1.svg

<svg xmlns="http://www.w3.org/2000/svg" width="1024" height="1024" fill="none">
   <g clip-path="url(#a)">
      <path fill="#ABABFF" d="M512 1024c282.77 0 512-229.23 512-512S794.77 0 512 0 0 229.23 0 512s229.23 512 512 512Z"/>
      <path fill="#fff" d="M558.62 256c-36.31.16-78.78 10-129.45 28.4-170.71 62.15-206.9 139.74-144.79 310.45 62.11 170.71 139.73 206.89 310.45 144.76 170.72-62.13 206.91-139.73 144.77-310.45-43.69-120-95-173.55-181-173.17l.02.01Zm59.1 140.16h26.73a5.34 5.34 0 0 1 2.365.546 5.341 5.341 0 0 1 2.878 3.749 5.328 5.328 0 0 1-.083 2.425l-59.26 220.48a5.342 5.342 0 0 1-5.15 4h-26.75a5.327 5.327 0 0 1-5.243-4.294 5.333 5.333 0 0 1 .083-2.426l3.6-13.4 2.63-9.75 53-197.38a5.328 5.328 0 0 1 5.14-3.94l.06-.01ZM421.79 413.4h10.75a5.333 5.333 0 0 1 5.33 5.33v18a5.33 5.33 0 0 1-5.33 5.33h-9.13a36.753 36.753 0 0 0-5.51.24 4.702 4.702 0 0 0-2.56 1 4.186 4.186 0 0 0-1 1.66 18.913 18.913 0 0 0-.92 6.72v13.67h19.16a5.333 5.333 0 0 1 5.33 5.33v18a5.341 5.341 0 0 1-5.33 5.33h-19.21v108.71a5.34 5.34 0 0 1-5.34 5.34H387a5.336 5.336 0 0 1-3.773-1.564 5.325 5.325 0 0 1-1.557-3.776V448.48a36.752 36.752 0 0 1 3.6-16.64 29.757 29.757 0 0 1 9.73-11.16c7.9-5.48 17.62-7.27 26.82-7.31l-.03.03Zm82.14 50c16.37 0 30.27 4.65 40.17 13.27 9.9 8.62 15.47 21.21 15.42 35.59v35.91l-16.11 59.92h-10.24a5.336 5.336 0 0 1-3.772-1.564 5.342 5.342 0 0 1-1.558-3.776v-4a39.028 39.028 0 0 1-4.76 3.56c-7.14 4.55-16.85 7.51-29.65 7.51a62.635 62.635 0 0 1-28.52-6.18 40.49 40.49 0 0 1-18.84-19.35 46.801 46.801 0 0 1-4-19.54 40.715 40.715 0 0 1 5.23-21.12 36.788 36.788 0 0 1 13.78-13.18c11.09-6.25 24.75-8.45 38.14-10.24 7.3-1 13.14-1.61 17.64-2.2a41.994 41.994 0 0 0 9.2-1.88 3.157 3.157 0 0 0 1.39-.86l.24-.48a6.773 6.773 0 0 0 .16-1.84v-.73a17.244 17.244 0 0 0-5.85-13.6c-3.8-3.31-9.77-5.55-18.07-5.57-8.3-.02-14.64 2.26-19 5.59a17.513 17.513 0 0 0-7.21 12.54 5.334 5.334 0 0 1-5.31 4.86h-22.25a5.32 5.32 0 0 1-3.856-1.645 5.311 5.311 0 0 1-1.139-1.811 5.311 5.311 0 0 1-.335-2.114 45.644 45.644 0 0 1 17.6-34c10.47-8.34 24.85-13.12 41.49-13.12l.01.05Zm23.92 80.71c-1.92.48-4 1-6.31 1.45-6.47 1.28-14.29 2.41-21.87 3.48a61.046 61.046 0 0 0-14.76 3.65c-4.18 1.75-7.1 4-8.68 6.57a12.116 12.116 0 0 0-1.71 6.54v.2a12.915 12.915 0 0 0 1.32 5.87 11.79 11.79 0 0 0 3.76 4.22c3.41 2.45 9.13 4.14 16.85 4.14 11.95 0 19.52-3.5 24.32-8.32 4.8-4.82 7-11.56 7.08-19.11v-8.69Z"/>
   </g>
   <defs>
      <clipPath id="a">
         <path fill="#fff" d="M0 0h1024v1024H0z"/>
      </clipPath>
   </defs>
</svg>

<svg width="1024" height="1024" viewBox="0 0 1024 1024" fill="none" xmlns="http://www.w3.org/2000/svg">
<g clip-path="url(#clip0_2_2172)">
<path d="M512 1024C794.77 1024 1024 794.77 1024 512C1024 229.23 794.77 0 512 0C229.23 0 0 229.23 0 512C0 794.77 229.23 1024 512 1024Z" fill="#ABABFF"/>
<path d="M558.62 256C522.31 256.16 479.84 266 429.17 284.4C258.46 346.55 222.27 424.14 284.38 594.85C346.49 765.56 424.11 801.74 594.83 739.61C765.55 677.48 801.74 599.88 739.6 429.16C695.91 309.16 644.6 255.61 558.6 255.99L558.62 256ZM617.72 396.16H644.45C645.27 396.158 646.079 396.345 646.815 396.706C647.55 397.068 648.193 397.594 648.692 398.244C649.191 398.894 649.534 399.651 649.693 400.455C649.852 401.259 649.824 402.089 649.61 402.88L590.35 623.36C590.054 624.502 589.388 625.514 588.456 626.238C587.525 626.961 586.38 627.356 585.2 627.36H558.45C557.63 627.362 556.821 627.176 556.085 626.814C555.35 626.453 554.707 625.927 554.208 625.276C553.709 624.626 553.366 623.87 553.207 623.066C553.048 622.262 553.076 621.432 553.29 620.64L556.89 607.24L559.52 597.49L612.52 400.11C612.825 398.98 613.494 397.982 614.423 397.27C615.352 396.558 616.489 396.172 617.66 396.17L617.72 396.16ZM421.79 413.4H432.54C433.954 413.4 435.309 413.962 436.309 414.961C437.308 415.961 437.87 417.317 437.87 418.73V436.73C437.87 438.144 437.308 439.5 436.309 440.499C435.309 441.499 433.954 442.06 432.54 442.06H423.41C421.57 442.002 419.728 442.082 417.9 442.3C416.966 442.371 416.075 442.719 415.34 443.3C414.881 443.768 414.539 444.336 414.34 444.96C413.631 447.127 413.319 449.403 413.42 451.68V465.35H432.58C433.994 465.35 435.349 465.912 436.349 466.911C437.348 467.911 437.91 469.267 437.91 470.68V488.68C437.907 490.093 437.345 491.447 436.346 492.446C435.347 493.445 433.993 494.008 432.58 494.01H413.37V602.72C413.37 604.137 412.807 605.495 411.806 606.496C410.804 607.498 409.446 608.06 408.03 608.06H387C386.299 608.06 385.605 607.922 384.958 607.654C384.311 607.385 383.723 606.992 383.227 606.496C382.732 606 382.34 605.411 382.073 604.763C381.806 604.115 381.669 603.421 381.67 602.72V448.48C381.551 442.728 382.784 437.029 385.27 431.84C387.521 427.36 390.868 423.521 395 420.68C402.9 415.2 412.62 413.41 421.82 413.37L421.79 413.4ZM503.93 463.4C520.3 463.4 534.2 468.05 544.1 476.67C554 485.29 559.57 497.88 559.52 512.26V548.17L543.41 608.09H533.17C532.469 608.09 531.775 607.952 531.128 607.684C530.481 607.415 529.893 607.022 529.398 606.526C528.902 606.03 528.51 605.441 528.243 604.793C527.976 604.145 527.839 603.451 527.84 602.75V598.75C526.346 600.056 524.755 601.246 523.08 602.31C515.94 606.86 506.23 609.82 493.43 609.82C483.569 610.034 473.798 607.917 464.91 603.64C456.601 599.536 449.95 592.706 446.07 584.29C443.348 578.14 441.984 571.475 442.07 564.75C441.865 557.366 443.673 550.066 447.3 543.63C450.655 538.102 455.408 533.556 461.08 530.45C472.17 524.2 485.83 522 499.22 520.21C506.52 519.21 512.36 518.6 516.86 518.01C519.987 517.729 523.073 517.099 526.06 516.13C526.591 515.97 527.07 515.674 527.45 515.27L527.69 514.79C527.827 514.187 527.881 513.568 527.85 512.95V512.22C527.946 509.661 527.471 507.113 526.459 504.76C525.447 502.408 523.924 500.31 522 498.62C518.2 495.31 512.23 493.07 503.93 493.05C495.63 493.03 489.29 495.31 484.93 498.64C482.904 500.096 481.213 501.968 479.969 504.131C478.726 506.294 477.959 508.697 477.72 511.18C477.602 512.507 476.992 513.742 476.009 514.642C475.026 515.542 473.742 516.04 472.41 516.04H450.16C449.439 516.041 448.726 515.896 448.063 515.613C447.4 515.33 446.802 514.916 446.304 514.395C445.805 513.875 445.418 513.258 445.165 512.584C444.911 511.909 444.797 511.19 444.83 510.47C445.126 503.867 446.854 497.406 449.892 491.536C452.931 485.665 457.209 480.525 462.43 476.47C472.9 468.13 487.28 463.35 503.92 463.35L503.93 463.4ZM527.85 544.11C525.93 544.59 523.85 545.11 521.54 545.56C515.07 546.84 507.25 547.97 499.67 549.04C494.617 549.637 489.658 550.863 484.91 552.69C480.73 554.44 477.81 556.69 476.23 559.26C475.051 561.234 474.458 563.502 474.52 565.8V566C474.492 568.034 474.944 570.045 475.84 571.87C476.733 573.561 478.023 575.009 479.6 576.09C483.01 578.54 488.73 580.23 496.45 580.23C508.4 580.23 515.97 576.73 520.77 571.91C525.57 567.09 527.77 560.35 527.85 552.8V544.15V544.11Z" fill="white"/>
</g>
<defs>
<clipPath id="clip0_2_2172">
<rect width="1024" height="1024" fill="white"/>
</clipPath>
</defs>
</svg>
